public/images/logo.svg

<svg xmlns="http://www.w3.org/2000/svg" width="563" height="164" fill="none" xmlns:v="https://vecta.io/nano"><g filter="url(#A)"><path fill="#b86161" d="M36 3h485v150H36z"/><path stroke="#000" stroke-width="5" stroke-linejoin="bevel" d="M36 3h485v150H36z"/></g><g filter="url(#B)"><path fill="#fac5c5" d="M7 49h549v59H7z"/><path stroke="#000" stroke-width="5" stroke-linejoin="bevel" d="M7 49h549v59H7z"/></g><path d="M103.144 96.576c-2.752 0-5.136-.48-7.152-1.44-1.984-.96-3.632-2.256-4.944-3.888a17.11 17.11 0 0 1-2.928-5.616c-.608-2.08-.912-4.224-.912-6.432 0-2.4.352-4.704 1.056-6.912.704-2.24 1.728-4.24 3.072-6 1.376-1.76 3.088-3.152 5.136-4.176s4.416-1.536 7.104-1.536c1.12 0 2.336.144 3.648.432a17.29 17.29 0 0 1 3.84 1.2c1.216.544 2.208 1.264 2.976 2.16l-2.496 2.784c-.928-1.024-2.176-1.808-3.744-2.352-1.536-.576-2.976-.864-4.32-.864-1.856 0-3.488.432-4.896 1.296-1.408.832-2.592 1.968-3.552 3.408s-1.696 3.056-2.208 4.848a21.06 21.06 0 0 0-.72 5.472c0 2.88.464 5.376 1.392 7.488.928 2.08 2.24 3.696 3.936 4.848 1.696 1.12 3.696 1.68 6 1.68 1.344 0 2.8-.192 4.368-.576s3.184-.992 4.848-1.824l1.488 2.736c-.928.672-2.048 1.248-3.36 1.728-1.28.48-2.592.848-3.936 1.104-1.344.288-2.576.432-3.696.432zm48.504-17.088h-16.992V96h-4.464V64.224c0-.032-.064-.288-.192-.768l-.288-1.488-.192-.912h5.136v15.168h16.992V61.056h4.464V96h-4.464V79.488zM174.8 61.056h20.976v3.312h-15.84v12.048h12.288v3.264h-12.288v13.008h15.84V96h-20.304V64.224l-.672-3.168zm51.326 0L238.222 96h-4.944l-4.032-12h-11.52l-4.08 12h-4.032l12.144-34.944h4.368zm-2.592 5.856l-4.704 13.824h9.312l-4.608-13.824zm29.968-5.856h10.464c2.304 0 4.336.368 6.096 1.104 1.792.704 3.184 1.824 4.176 3.36s1.488 3.568 1.488 6.096c0 2.336-.528 4.288-1.584 5.856s-2.464 2.752-4.224 3.552c-1.76.768-3.728 1.152-5.904 1.152h-5.328V96h-4.464V64.224l-.72-3.168zm5.184 3.312v14.544h5.232c2.208 0 3.952-.672 5.232-2.016s1.92-3.104 1.92-5.28c0-2.272-.608-4.048-1.824-5.328s-2.976-1.92-5.28-1.92h-5.28zm33.536-3.312h19.344v3.312h-14.208v12.048h11.28v3.264h-11.28V96h-4.464V64.224l-.672-3.168zm35.53 0h20.976v3.312h-15.84v12.048h12.288v3.264H332.89v13.008h15.84V96h-20.304V64.224l-.672-3.168zm52.094 35.52c-2.752 0-5.136-.48-7.152-1.44-1.984-.96-3.632-2.256-4.944-3.888a17.11 17.11 0 0 1-2.928-5.616c-.608-2.08-.912-4.224-.912-6.432 0-2.4.352-4.704 1.056-6.912.704-2.24 1.728-4.24 3.072-6 1.376-1.76 3.088-3.152 5.136-4.176s4.416-1.536 7.104-1.536c1.12 0 2.336.144 3.648.432a17.29 17.29 0 0 1 3.84 1.2c1.216.544 2.208 1.264 2.976 2.16l-2.496 2.784c-.928-1.024-2.176-1.808-3.744-2.352-1.536-.576-2.976-.864-4.32-.864-1.856 0-3.488.432-4.896 1.296-1.408.832-2.592 1.968-3.552 3.408s-1.696 3.056-2.208 4.848a21.06 21.06 0 0 0-.72 5.472c0 2.88.464 5.376 1.392 7.488.928 2.08 2.24 3.696 3.936 4.848 1.696 1.12 3.696 1.68 6 1.68 1.344 0 2.8-.192 4.368-.576s3.184-.992 4.848-1.824l1.488 2.736c-.928.672-2.048 1.248-3.36 1.728-1.28.48-2.592.848-3.936 1.104-1.344.288-2.576.432-3.696.432zm34.392-32.208H403.87v-3.312h25.44v3.312H418.8V96h-4.56V64.368zm52.924 15.12H450.17V96h-4.464V64.224c0-.032-.064-.288-.192-.768l-.288-1.488-.192-.912h5.136v15.168h16.992V61.056h4.464V96h-4.464V79.488z" fill="#000"/><defs><filter id="A" x="29.5" y=".5" width="498" height="163" filterUnits="userSpaceOnUse" color-interpolation-filters="sRGB"><feFlood flood-opacity="0" result="A"/><feColorMatrix in="SourceAlpha" values="0 0 0 0 0 0 0 0 0 0 0 0 0 0 0 0 0 0 127 0"/><feOffset dy="4"/><feGaussianBlur stdDeviation="2"/><feColorMatrix values="0 0 0 0 0 0 0 0 0 0 0 0 0 0 0 0 0 0 0.25 0"/><feBlend in2="A"/><feBlend in="SourceGraphic"/></filter><filter id="B" x=".5" y="46.5" width="562" height="72" filterUnits="userSpaceOnUse" color-interpolation-filters="sRGB"><feFlood flood-opacity="0" result="A"/><feColorMatrix in="SourceAlpha" values="0 0 0 0 0 0 0 0 0 0 0 0 0 0 0 0 0 0 127 0"/><feOffset dy="4"/><feGaussianBlur stdDeviation="2"/><feColorMatrix values="0 0 0 0 0 0 0 0 0 0 0 0 0 0 0 0 0 0 0.25 0"/><feBlend in2="A"/><feBlend in="SourceGraphic"/></filter></defs></svg>

<svg width="563" height="164" viewBox="0 0 563 164" fill="none" xmlns="http://www.w3.org/2000/svg">
<g filter="url(#filter0_d)">
<rect x="36" y="3" width="485" height="150" fill="#B86161"/>
<rect x="36" y="3" width="485" height="150" stroke="black" stroke-width="5" stroke-linejoin="bevel"/>
</g>
<g filter="url(#filter1_d)">
<rect x="7" y="49" width="549" height="59" fill="#FAC5C5"/>
<rect x="7" y="49" width="549" height="59" stroke="black" stroke-width="5" stroke-linejoin="bevel"/>
</g>
<path d="M103.144 96.576C100.392 96.576 98.008 96.096 95.992 95.136C94.008 94.176 92.36 92.88 91.048 91.248C89.736 89.584 88.76 87.712 88.12 85.632C87.512 83.552 87.208 81.408 87.208 79.2C87.208 76.8 87.56 74.496 88.264 72.288C88.968 70.048 89.992 68.048 91.336 66.288C92.712 64.528 94.424 63.136 96.472 62.112C98.52 61.088 100.888 60.576 103.576 60.576C104.696 60.576 105.912 60.72 107.224 61.008C108.568 61.264 109.848 61.664 111.064 62.208C112.28 62.752 113.272 63.472 114.04 64.368L111.544 67.152C110.616 66.128 109.368 65.344 107.8 64.8C106.264 64.224 104.824 63.936 103.48 63.936C101.624 63.936 99.992 64.368 98.584 65.232C97.176 66.064 95.992 67.2 95.032 68.64C94.072 70.08 93.336 71.696 92.824 73.488C92.344 75.28 92.104 77.104 92.104 78.96C92.104 81.84 92.568 84.336 93.496 86.448C94.424 88.528 95.736 90.144 97.432 91.296C99.128 92.416 101.128 92.976 103.432 92.976C104.776 92.976 106.232 92.784 107.8 92.4C109.368 92.016 110.984 91.408 112.648 90.576L114.136 93.312C113.208 93.984 112.088 94.56 110.776 95.04C109.496 95.52 108.184 95.888 106.84 96.144C105.496 96.432 104.264 96.576 103.144 96.576ZM151.648 79.488H134.656V96H130.192V64.224C130.192 64.192 130.128 63.936 130 63.456C129.904 62.976 129.808 62.48 129.712 61.968C129.616 61.456 129.552 61.152 129.52 61.056H134.656V76.224H151.648V61.056H156.112V96H151.648V79.488ZM174.8 61.056H195.776V64.368H179.936V76.416H192.224V79.68H179.936V92.688H195.776V96H175.472V64.224L174.8 61.056ZM226.126 61.056L238.222 96H233.278L229.246 84H217.726L213.646 96H209.614L221.758 61.056H226.126ZM223.534 66.912L218.83 80.736H228.142L223.534 66.912ZM253.502 61.056H263.966C266.27 61.056 268.302 61.424 270.062 62.16C271.854 62.864 273.246 63.984 274.238 65.52C275.23 67.056 275.726 69.088 275.726 71.616C275.726 73.952 275.198 75.904 274.142 77.472C273.086 79.04 271.678 80.224 269.918 81.024C268.158 81.792 266.19 82.176 264.014 82.176H258.686V96H254.222V64.224L253.502 61.056ZM258.686 64.368V78.912H263.918C266.126 78.912 267.87 78.24 269.15 76.896C270.43 75.552 271.07 73.792 271.07 71.616C271.07 69.344 270.462 67.568 269.246 66.288C268.03 65.008 266.27 64.368 263.966 64.368H258.686ZM292.222 61.056H311.566V64.368H297.358V76.416H308.638V79.68H297.358V96H292.894V64.224L292.222 61.056ZM327.753 61.056H348.729V64.368H332.889V76.416H345.177V79.68H332.889V92.688H348.729V96H328.425V64.224L327.753 61.056ZM379.847 96.576C377.095 96.576 374.711 96.096 372.695 95.136C370.711 94.176 369.063 92.88 367.751 91.248C366.439 89.584 365.463 87.712 364.823 85.632C364.215 83.552 363.911 81.408 363.911 79.2C363.911 76.8 364.263 74.496 364.967 72.288C365.671 70.048 366.695 68.048 368.039 66.288C369.415 64.528 371.127 63.136 373.175 62.112C375.223 61.088 377.591 60.576 380.279 60.576C381.399 60.576 382.615 60.72 383.927 61.008C385.271 61.264 386.551 61.664 387.767 62.208C388.983 62.752 389.975 63.472 390.743 64.368L388.247 67.152C387.319 66.128 386.071 65.344 384.503 64.8C382.967 64.224 381.527 63.936 380.183 63.936C378.327 63.936 376.695 64.368 375.287 65.232C373.879 66.064 372.695 67.2 371.735 68.64C370.775 70.08 370.039 71.696 369.527 73.488C369.047 75.28 368.807 77.104 368.807 78.96C368.807 81.84 369.271 84.336 370.199 86.448C371.127 88.528 372.439 90.144 374.135 91.296C375.831 92.416 377.831 92.976 380.135 92.976C381.479 92.976 382.935 92.784 384.503 92.4C386.071 92.016 387.687 91.408 389.351 90.576L390.839 93.312C389.911 93.984 388.791 94.56 387.479 95.04C386.199 95.52 384.887 95.888 383.543 96.144C382.199 96.432 380.967 96.576 379.847 96.576ZM414.239 64.368H403.871V61.056H429.311V64.368H418.799V96H414.239V64.368ZM467.163 79.488H450.171V96H445.707V64.224C445.707 64.192 445.643 63.936 445.515 63.456C445.419 62.976 445.323 62.48 445.227 61.968C445.131 61.456 445.067 61.152 445.035 61.056H450.171V76.224H467.163V61.056H471.627V96H467.163V79.488Z" fill="black"/>
<defs>
<filter id="filter0_d" x="29.5" y="0.5" width="498" height="163" filterUnits="userSpaceOnUse" color-interpolation-filters="sRGB">
<feFlood flood-opacity="0" result="BackgroundImageFix"/>
<feColorMatrix in="SourceAlpha" type="matrix" values="0 0 0 0 0 0 0 0 0 0 0 0 0 0 0 0 0 0 127 0"/>
<feOffset dy="4"/>
<feGaussianBlur stdDeviation="2"/>
<feColorMatrix type="matrix" values="0 0 0 0 0 0 0 0 0 0 0 0 0 0 0 0 0 0 0.25 0"/>
<feBlend mode="normal" in2="BackgroundImageFix" result="effect1_dropShadow"/>
<feBlend mode="normal" in="SourceGraphic" in2="effect1_dropShadow" result="shape"/>
</filter>
<filter id="filter1_d" x="0.5" y="46.5" width="562" height="72" filterUnits="userSpaceOnUse" color-interpolation-filters="sRGB">
<feFlood flood-opacity="0" result="BackgroundImageFix"/>
<feColorMatrix in="SourceAlpha" type="matrix" values="0 0 0 0 0 0 0 0 0 0 0 0 0 0 0 0 0 0 127 0"/>
<feOffset dy="4"/>
<feGaussianBlur stdDeviation="2"/>
<feColorMatrix type="matrix" values="0 0 0 0 0 0 0 0 0 0 0 0 0 0 0 0 0 0 0.25 0"/>
<feBlend mode="normal" in2="BackgroundImageFix" result="effect1_dropShadow"/>
<feBlend mode="normal" in="SourceGraphic" in2="effect1_dropShadow" result="shape"/>
</filter>
</defs>
</svg>
